src/32/apps/system-software-install.svg

<?xml version="1.0" encoding="UTF-8" standalone="no"?>
<svg
   xmlns:dc="http://purl.org/dc/elements/1.1/"
   xmlns:cc="http://creativecommons.org/ns#"
   xmlns:rdf="http://www.w3.org/1999/02/22-rdf-syntax-ns#"
   xmlns:svg="http://www.w3.org/2000/svg"
   xmlns="http://www.w3.org/2000/svg"
   xmlns:xlink="http://www.w3.org/1999/xlink"
   xmlns:sodipodi="http://sodipodi.sourceforge.net/DTD/sodipodi-0.dtd"
   xmlns:inkscape="http://www.inkscape.org/namespaces/inkscape"
   id="svg4715"
   height="32"
   width="32"
   version="1.1"
   sodipodi:docname="system-software-install.svg"
   inkscape:version="0.92.4 (5da689c313, 2019-01-14)">
  <sodipodi:namedview
     pagecolor="#ffffff"
     bordercolor="#666666"
     borderopacity="1"
     objecttolerance="10"
     gridtolerance="10"
     guidetolerance="10"
     inkscape:pageopacity="0"
     inkscape:pageshadow="2"
     inkscape:window-width="1366"
     inkscape:window-height="697"
     id="namedview94"
     showgrid="false"
     inkscape:zoom="2.6074563"
     inkscape:cx="-60.492261"
     inkscape:cy="-6.9972125"
     inkscape:window-x="0"
     inkscape:window-y="0"
     inkscape:window-maximized="1"
     inkscape:current-layer="svg4715" />
  <defs
     id="defs4717">
    <linearGradient
       id="linearGradient943">
      <stop
         style="stop-color:#452981;stop-opacity:1;"
         offset="0"
         id="stop937" />
      <stop
         id="stop939"
         offset="0.57074559"
         style="stop-color:#7239b3;stop-opacity:1" />
      <stop
         style="stop-color:#7239b3;stop-opacity:1"
         offset="1"
         id="stop941" />
    </linearGradient>
    <radialGradient
       id="radialGradient3163"
       gradientUnits="userSpaceOnUse"
       cy="43.5"
       cx="4.993"
       gradientTransform="matrix(2.0038 0 0 1.4 23.917 -17.4)"
       r="2.5">
      <stop
         id="stop2883"
         stop-color="#181818"
         offset="0" />
      <stop
         id="stop2885"
         stop-color="#181818"
         stop-opacity="0"
         offset="1" />
    </radialGradient>
    <radialGradient
       id="radialGradient3165"
       gradientUnits="userSpaceOnUse"
       cy="43.5"
       cx="4.993"
       gradientTransform="matrix(2.0038 0 0 1.4 -21.369 -104.4)"
       r="2.5">
      <stop
         id="stop2889"
         stop-color="#181818"
         offset="0" />
      <stop
         id="stop2891"
         stop-color="#181818"
         stop-opacity="0"
         offset="1" />
    </radialGradient>
    <linearGradient
       id="linearGradient3167"
       y2="39.999"
       gradientUnits="userSpaceOnUse"
       x2="25.058"
       gradientTransform="matrix(.80614 0 0 1 3.2957 0)"
       y1="47.028"
       x1="25.058">
      <stop
         id="stop2895"
         stop-color="#181818"
         stop-opacity="0"
         offset="0" />
      <stop
         id="stop2897"
         stop-color="#181818"
         offset=".5" />
      <stop
         id="stop2899"
         stop-color="#181818"
         stop-opacity="0"
         offset="1" />
    </linearGradient>
    <linearGradient
       id="linearGradient3024"
       y2="30.093"
       gradientUnits="userSpaceOnUse"
       x2="30.643"
       gradientTransform="matrix(.92 0 0 .92 -23.851 2.36)"
       y1="3.9158"
       x1="30.643">
      <stop
         id="stop4551"
         stop-opacity=".27206"
         offset="0" />
      <stop
         id="stop4553"
         stop-opacity=".36765"
         offset="1" />
    </linearGradient>
    <linearGradient
       id="linearGradient3027"
       y2="43"
       gradientUnits="userSpaceOnUse"
       x2="24"
       gradientTransform="matrix(.56757 0 0 .56757 2.3784 4.3784)"
       y1="5"
       x1="24">
      <stop
         id="stop3926"
         stop-color="#fff"
         offset="0" />
      <stop
         id="stop3928"
         stop-color="#fff"
         stop-opacity=".23529"
         offset=".063165" />
      <stop
         id="stop3930"
         stop-color="#fff"
         stop-opacity=".15686"
         offset=".95056" />
      <stop
         id="stop3932"
         stop-color="#fff"
         stop-opacity=".39216"
         offset="1" />
    </linearGradient>
    <radialGradient
       id="radialGradient3035"
       gradientUnits="userSpaceOnUse"
       cy="8.4498"
       cx="20.931"
       gradientTransform="matrix(1.0686e-8 1.3183 -1.3597 -2.4288e-8 27.49 -38.553)"
       r="20">
      <stop
         id="stop4036"
         stop-color="#f4f4f4"
         offset="0" />
      <stop
         id="stop4040"
         stop-color="#d0d0d0"
         offset="1" />
    </radialGradient>
    <linearGradient
       id="linearGradient8827"
       y2="38"
       gradientUnits="userSpaceOnUse"
       x2="20"
       gradientTransform="matrix(.46667 0 0 .46154 3.0973 6.2692)"
       y1="23.33"
       x1="21.22">
      <stop
         style="stop-color:#64baff;stop-opacity:1"
         id="stop8823"
         stop-color="#6db0de"
         offset="0" />
      <stop
         style="stop-color:#8cd5ff;stop-opacity:1"
         id="stop8825"
         stop-color="#a4cae4"
         offset="1" />
    </linearGradient>
    <linearGradient
       id="linearGradient8537"
       y2="34"
       gradientUnits="userSpaceOnUse"
       x2="23"
       gradientTransform="matrix(0 .36364 -.38462 0 24.108 15.318)"
       y1="34.08"
       x1="7.375">
      <stop
         id="stop3926-9-4-9-6"
         stop-color="#fff"
         offset="0" />
      <stop
         id="stop3928-9-8-6-5"
         stop-color="#fff"
         stop-opacity=".23529"
         offset=".15625" />
      <stop
         id="stop3930-3-5-1-7"
         stop-color="#fff"
         stop-opacity=".15686"
         offset=".84375" />
      <stop
         id="stop3932-8-0-4-8"
         stop-color="#fff"
         stop-opacity=".39216"
         offset="1" />
    </linearGradient>
    <linearGradient
       id="linearGradient5610-3-8"
       y2="10"
       gradientUnits="userSpaceOnUse"
       x2="8"
       gradientTransform="matrix(1.8163 0 0 1.6784 1.694 -2.9511)"
       y1="15"
       x1="8">
      <stop
         id="stop5606-8-2"
         stop-color="#ae6a37"
         offset="0" />
      <stop
         id="stop5608-5-0"
         stop-color="#d28e5b"
         offset="1" />
    </linearGradient>
    <linearGradient
       id="linearGradient5618-5-7"
       y2="15"
       gradientUnits="userSpaceOnUse"
       x2="9"
       gradientTransform="matrix(1.8163 0 0 1.6784 1.694 -2.9511)"
       y1="10"
       x1="9">
      <stop
         id="stop5614-2-5"
         stop-color="#492714"
         stop-opacity=".625"
         offset="0" />
      <stop
         id="stop5616-0-2"
         stop-color="#6a3f1f"
         stop-opacity=".76953"
         offset="1" />
    </linearGradient>
    <linearGradient
       id="linearGradient6572-9-1"
       y2="230.46"
       gradientUnits="userSpaceOnUse"
       x2="633.14"
       gradientTransform="matrix(1.6814 0 0 1.6205 -1048.4 -352.26)"
       y1="225.3"
       x1="633.14">
      <stop
         id="stop6094"
         stop-color="#fff"
         offset="0" />
      <stop
         id="stop6096"
         stop-color="#fff"
         stop-opacity=".23529"
         offset=".14286" />
      <stop
         id="stop6098"
         stop-color="#fff"
         stop-opacity=".15686"
         offset=".85714" />
      <stop
         id="stop6100"
         stop-color="#fff"
         stop-opacity=".39216"
         offset="1" />
    </linearGradient>
    <linearGradient
       id="linearGradient8424">
      <stop
         id="stop8426"
         stop-color="#fff"
         offset="0" />
      <stop
         id="stop8428"
         stop-color="#fff"
         stop-opacity="0"
         offset="1" />
    </linearGradient>
    <linearGradient
       id="linearGradient23702"
       y2="18"
       xlink:href="#linearGradient8424"
       gradientUnits="userSpaceOnUse"
       x2="9"
       gradientTransform="matrix(0.5 0 0 .49968 1.75 3.2565)"
       y1="21"
       x1="9" />
    <linearGradient
       id="linearGradient23706"
       y2="18"
       xlink:href="#linearGradient8424"
       gradientUnits="userSpaceOnUse"
       x2="9"
       gradientTransform="matrix(0.5 0 0 .49968 6.75 3.2565)"
       y1="21"
       x1="9" />
    <linearGradient
       id="linearGradient23710"
       y2="18"
       xlink:href="#linearGradient8424"
       gradientUnits="userSpaceOnUse"
       x2="9"
       gradientTransform="matrix(0.5 0 0 .49968 11.75 3.2565)"
       y1="21"
       x1="9" />
    <linearGradient
       id="linearGradient23714"
       y2="18"
       xlink:href="#linearGradient8424"
       gradientUnits="userSpaceOnUse"
       x2="9"
       gradientTransform="matrix(0.5 0 0 .49968 16.75 3.2565)"
       y1="21"
       x1="9" />
    <linearGradient
       id="linearGradient23718"
       y2="18"
       xlink:href="#linearGradient8424"
       gradientUnits="userSpaceOnUse"
       x2="9"
       gradientTransform="matrix(0.5 0 0 .49968 21.75 3.2565)"
       y1="21"
       x1="9" />
    <linearGradient
       id="linearGradient23728"
       y2="16"
       gradientUnits="userSpaceOnUse"
       x2="16"
       gradientTransform="matrix(.91667 0 0 1 1.3333 1)"
       y1="10"
       x1="16">
      <stop
         id="stop23724"
         offset="0" />
      <stop
         id="stop23726"
         stop-opacity="0"
         offset="1" />
    </linearGradient>
    <linearGradient
       gradientUnits="userSpaceOnUse"
       y2="4.5161309"
       x2="14.348896"
       y1="14.961845"
       x1="14.348896"
       id="linearGradient918"
       xlink:href="#linearGradient943" />
  </defs>
  <metadata
     id="metadata4720">
    <rdf:RDF>
      <cc:Work
         rdf:about="">
        <dc:format>image/svg+xml</dc:format>
        <dc:type
           rdf:resource="http://purl.org/dc/dcmitype/StillImage" />
        <dc:title />
      </cc:Work>
    </rdf:RDF>
  </metadata>
  <rect
     id="rect5505"
     style="color:#000000;fill:#f2f2f2"
     transform="scale(1,-1)"
     rx="1.6154"
     ry="1.6154"
     height="22"
     width="22"
     y="-29"
     x="5"
     fill="url(#radialGradient3035)" />
  <rect
     id="rect5505-6-6"
     stroke-linejoin="round"
     style="color:#000000;stroke:#000000;stroke-opacity:0.19607843"
     rx="2.16"
     ry="2.16"
     height="23"
     width="23"
     stroke="url(#linearGradient3024)"
     stroke-linecap="round"
     y="6.5"
     x="4.5"
     fill="none" />
  <g
     id="g18977"
     stroke-width=".91137"
     transform="matrix(1.0999 0 0 1.0946 3.654 5.9128)">
    <path
       id="rect5583-1"
       stroke-linejoin="round"
       style="color:#000000;fill:#cd8956;fill-opacity:1;stroke:#5c3014;stroke-opacity:0.51764709"
       d="m16.224 12.419c-1.5094 0-2.7245 1.1388-2.7245 2.7242v6.4051h5.4489v-6.4051c0-1.5854-1.2151-2.7242-2.7244-2.7242z"
       stroke="url(#linearGradient5618-5-7)"
       stroke-width=".91137"
       fill="url(#linearGradient5610-3-8)" />
    <path
       id="path5620-8"
       style="color:#000000"
       d="m18.677 17.513c0 0.65821-1 0.65821-1 0s1-0.65821 1 0z"
       fill="#620" />
  </g>
  <path
     id="rect8516"
     opacity=".9"
     style="color-rendering:auto;color:#000000;isolation:auto;mix-blend-mode:normal;shape-rendering:auto;solid-color:#000000;image-rendering:auto;fill:#85ccfe;fill-opacity:1"
     d="m7.5306 17.5h8.0004v7h-8.0004z"
     fill-rule="evenodd"
     fill="url(#linearGradient8827)" />
  <path
     id="path8523"
     opacity=".2"
     d="m8.9155 20.213 1.8665-1.846"
     stroke="#fff"
     stroke-linecap="round"
     stroke-width="1px"
     fill="none" />
  <path
     id="path8525"
     opacity=".2"
     d="m9.9566 23.524 1.8664-1.846"
     stroke="#fff"
     stroke-linecap="round"
     stroke-width="1px"
     fill="none" />
  <path
     id="path8527"
     opacity=".2"
     d="m12.497 19.809 1.8667-1.8462"
     stroke="#fff"
     stroke-linecap="round"
     stroke-width="1px"
     fill="none" />
  <path
     id="path8592"
     opacity=".2"
     d="m13.816 22.221 1.8667-1.8462"
     stroke="#fff"
     stroke-linecap="round"
     stroke-width="1px"
     fill="none" />
  <path
     id="path11916"
     stroke-linejoin="round"
     style="color-rendering:auto;color:#000000;isolation:auto;mix-blend-mode:normal;shape-rendering:auto;solid-color:#000000;image-rendering:auto;stroke:#64baff"
     d="m7.5306 17.5h7.9996v7h-7.9996z"
     stroke="#6490b1"
     stroke-linecap="round"
     fill="none" />
  <path
     id="path23683"
     d="m23.5 4.5v7.4595s0.01092 2.5405-2.5 2.5405c-2.489 0-2.5-2.541-2.5-2.541v-7.459c1.8052 0.016249 5 0 5 0z"
     stroke-opacity=".36471"
     fill-rule="evenodd"
     stroke="#000"
     stroke-width="1px"
     fill="#eaeaea" />
  <path
     id="path23685"
     d="m13.5 4.5v7.4595s0.01092 2.5405-2.5 2.5405c-2.4891 0-2.5-2.541-2.5-2.541v-7.459c1.8052 0.016249 5 0 5 0z"
     stroke-opacity=".36471"
     fill-rule="evenodd"
     stroke="#000"
     stroke-width="1px"
     fill="#eaeaea" />
  <path
     style="color:#000000;clip-rule:nonzero;display:inline;overflow:visible;visibility:visible;opacity:1;isolation:auto;mix-blend-mode:normal;color-interpolation:sRGB;color-interpolation-filters:linearRGB;solid-color:#000000;solid-opacity:1;fill:#976cd0;fill-opacity:1;fill-rule:nonzero;stroke:#070311;stroke-width:1;stroke-linecap:round;stroke-linejoin:round;stroke-miterlimit:4;stroke-dasharray:none;stroke-dashoffset:20;stroke-opacity:0.35294119;filter-blend-mode:normal;filter-gaussianBlur-deviation:0;color-rendering:auto;image-rendering:auto;shape-rendering:auto;text-rendering:auto;enable-background:accumulate;font-variant-east_asian:normal;vector-effect:none"
     d="M 5.5 4.5 C 5.5 4.5 3.467696 4.3679 3.5 6.5 L 3.5 11.958984 C 3.5 11.958984 3.5109 14.5 6 14.5 C 8.51092 14.5 8.5 11.958984 8.5 11.958984 L 8.5 4.5 L 5.5 4.5 z M 13.5 4.5 L 13.5 11.958984 C 13.5 11.958984 13.511 14.5 16 14.5 C 18.51092 14.5 18.5 11.958984 18.5 11.958984 L 18.5 4.5 C 18.5 4.5 15.3052 4.516249 13.5 4.5 z M 23.5 4.5 L 23.5 11.958984 C 23.5 11.958984 23.48908 14.5 26 14.5 C 28.4891 14.5 28.5 11.958984 28.5 11.958984 L 28.5 6.5 C 28.5323 4.3679 26.5 4.5 26.5 4.5 L 23.5 4.5 z "
     id="path23720" />
  <ellipse
     id="ellipse23712"
     stroke-linejoin="round"
     style="color-rendering:auto;color:#000000;isolation:auto;mix-blend-mode:normal;shape-rendering:auto;solid-color:#000000;image-rendering:auto"
     stroke-linecap="round"
     stroke-opacity=".39216"
     rx="1.5"
     ry="1.499"
     stroke="url(#linearGradient23714)"
     cy="12.001"
     cx="21"
     fill="none" />
  <path
     fill="none"
     stroke-linecap="round"
     stroke="#6490b1"
     d="m7.5306 17.5h7.9996v7h-7.9996z"
     style="color-rendering:auto;color:#000000;isolation:auto;mix-blend-mode:normal;shape-rendering:auto;solid-color:#000000;image-rendering:auto;stroke:#000000;stroke-opacity:1;opacity:0.2"
     stroke-linejoin="round"
     id="path3416" />
</svg>

<svg xmlns="http://www.w3.org/2000/svg" xmlns:xlink="http://www.w3.org/1999/xlink" height="32" width="32"><defs><linearGradient id="b"><stop offset="0" stop-color="#452981"/><stop offset=".571" stop-color="#7239b3"/><stop offset="1" stop-color="#7239b3"/></linearGradient><linearGradient id="a"><stop stop-color="#fff" offset="0"/><stop stop-color="#fff" stop-opacity="0" offset="1"/></linearGradient><linearGradient id="c" y2="18" xlink:href="#a" gradientUnits="userSpaceOnUse" x2="9" gradientTransform="matrix(.5 0 0 .49968 16.75 3.256)" y1="21" x1="9"/></defs><rect transform="scale(1 -1)" rx="1.615" ry="1.615" height="22" width="22" y="-29" x="5" fill="#f2f2f2" color="#000"/><rect stroke-linejoin="round" rx="2.16" ry="2.16" height="23" width="23" stroke="#000" stroke-linecap="round" y="6.5" x="4.5" fill="none" color="#000" stroke-opacity=".196"/><g stroke-width=".911" color="#000"><path stroke-linejoin="round" d="M16.224 12.419c-1.51 0-2.724 1.139-2.724 2.724v6.405h5.448v-6.405c0-1.585-1.215-2.724-2.724-2.724z" stroke="#5c3014" fill="#cd8956" stroke-opacity=".518" transform="matrix(1.0999 0 0 1.0946 3.654 5.913)"/><path d="M24.197 25.083c0 .72-1.1.72-1.1 0s1.1-.72 1.1 0z" fill="#620"/></g><path opacity=".9" style="isolation:auto;mix-blend-mode:normal;solid-color:#000" d="M7.53 17.5h8.001v7h-8z" fill-rule="evenodd" fill="#85ccfe" color="#000"/><path opacity=".2" d="M8.915 20.213l1.867-1.846M9.957 23.524l1.866-1.846M12.497 19.809l1.867-1.846M13.816 22.221l1.867-1.846" stroke="#fff" stroke-linecap="round" fill="none"/><path stroke-linejoin="round" style="isolation:auto;mix-blend-mode:normal;solid-color:#000" d="M7.53 17.5h8v7h-8z" stroke="#64baff" stroke-linecap="round" fill="none" color="#000"/><path d="M23.5 4.5v7.46s.01 2.54-2.5 2.54c-2.489 0-2.5-2.541-2.5-2.541V4.5c1.805.016 5 0 5 0zM13.5 4.5v7.46s.01 2.54-2.5 2.54c-2.49 0-2.5-2.541-2.5-2.541V4.5c1.805.016 5 0 5 0z" stroke-opacity=".365" fill-rule="evenodd" stroke="#000" fill="#eaeaea"/><path style="isolation:auto;mix-blend-mode:normal;solid-color:#000;solid-opacity:1;filter-blend-mode:normal;filter-gaussianBlur-deviation:0;font-variant-east_asian:normal" d="M5.5 4.5s-2.032-.132-2 2v5.459S3.51 14.5 6 14.5c2.51 0 2.5-2.541 2.5-2.541V4.5h-3zm8 0v7.459S13.511 14.5 16 14.5c2.51 0 2.5-2.541 2.5-2.541V4.5s-3.195.016-5 0zm10 0v7.459S23.49 14.5 26 14.5c2.49 0 2.5-2.541 2.5-2.541V6.5c.032-2.132-2-2-2-2h-3z" color="#000" overflow="visible" fill="#976cd0" stroke="#070311" stroke-linecap="round" stroke-linejoin="round" stroke-dashoffset="20" stroke-opacity=".353"/><ellipse stroke-linejoin="round" style="isolation:auto;mix-blend-mode:normal;solid-color:#000" stroke-linecap="round" stroke-opacity=".392" rx="1.5" ry="1.499" stroke="url(#c)" cy="12.001" cx="21" fill="none" color="#000"/><path fill="none" stroke-linecap="round" stroke="#000" d="M7.53 17.5h8v7h-8z" style="isolation:auto;mix-blend-mode:normal;solid-color:#000" stroke-linejoin="round" color="#000" opacity=".2"/></svg>
